X: 1
T: Sweet Journeys
C: George Wilson 1990
R: waltz
Z: 2010 John Chambers <jc:trillian.mit.edu>
B: The Waltz Book
M: 3/4
L: 1/8
K: A
ECB, \
|  "A"A,3CE2 | Ac3B2 | "D"A3FD2 | "A"E4{FE}"E7"D2 \
| "A"C3EA2 | ce3f2 | "(Bm)"e3cA2 | "E7"B3ABc |
| "D"d3efd | "A"e2c2A2 | "D"F3ED2 | "E7"E4{FE}D2 \
| "A"CA3c2 | "E7"B3AG2 | "A"A6- | A2z :|
|: ze2 \
| "D"f3ed2 | fa3f2 | "A"e3cA2 | A4E2 \
| "D"Fd3F2 | Ec3e2 | "Bm"e3dc2 | "E7"B3ABc |
| "D"d3ef2 | "E7"g3ab2 | "A"a2e2c2 | "D"f3ga2 \
| "A"e2c2A2 | "D"Fd3"E7"G2 | "A"A6 - | A2z :|
